X:742
T:My Wife's a Wanton Wee Thing
R:Jig
B:The Athole Collection
M:6/8
L:1/8
K:D
f/d/|d2A dfe|d3 A2B|=cdc cGE|=c3 E2^c|d2A dfe|d3 A2G|FDF ECE|D3 D2:|
F/G/|ABA FDF|A3 =c3|G=cG ECE|G3 B3|AdA FDF|A3 g3|fdf ece|d3 D2 F/G/|
ABA FDF|AdA FDF|GAG E=CE|G=cG ECE|ABA FDF|AFA aeg|fga gfe|d3 D2||
|:f/g/|d2g faf|d3 A2B|=cdc cGE|=c3 E2^c|d2A dfe|d3 A2G|FDF ECE|D3 D2:|
f/g/|aba fdf|a3 g2f|gag e=ce|g3 efg|aba fdf|a3 g2 f/g/|fdf ece|d3 D2 f/g/|aba
fdf|
aba fdf|gag e=ce|gag e=ce|aba fdf|aba gab|fga gfe|d3 D2||

